!!!XEN: Song of the chief
!!!AGN: Song of the drum-presentation ceremony
!!!COM: Anonymous
!!!CNT: Native American -- Ojibway
!!!TXO: Ojibway
!!!MLC: Lac du Flambeau reservation, northern Wisconsin, U.S.A.
!!!MRD: 1909-1912///
!!!MPN: Mec'kawiga'bau ("Stands firmly")
**kern
*MM88
*Imale
*k[]
*clefF4
*M5/4
=1
2d
4c
8.A
16A
4A
=2
2d
4c
8.A
16A
4A
=3
8c
8d
4c
16A
8.A
16A
16E
8E
4D
=4
8.C
16AA
4C
8.D
16D
8D
8D
16C
8.C
=5
8AA
8AA
[4AA
2.AA]
=6
2c
16A
8.A
16A
16E
8E
4D
=7
8.C
16AA
4C
8.D
16D
8D
8D
16C
8.C
=8
8AA
8AA
4AA
2.AA
==
*-
!!!OCL: Frances Densmore
!!!YOR: Chippewa [i.e., Ojibway] Music--II, Bulletin 53 of the Bureau of American Ethnology, Smitsonian Institution
!!!ONM: 55
!!!PPG: 150
!!!PUB: published
!!!PPR: Government Printing Office
!!!PPP: Washington, D.C.
!!!PDT: 1912///
!!!EST: missing clef changes, text, drum tempo, and drum part
!!!YEC: Copyright 1998 Paul von Hippel
!!!YEM: Rights to all derivate electronic formats reserved.
!!!EFL: 27/42
